X:1
T:Regia Infante
T:Regia Infante
T:Enrico Radesca di Foggia
T:Source : Canzonette a 2 voci---Libro III---Milano (?)---Heredes S.Tini & F.Lomazzi (?)---1616. Editor : André Vierendeels (09/04/14).
C:Enrico Radesca di Foggio
%%score [ 1 2 ] { 3 | 4 }
L:1/8
Q:1/4=96
M:4/4
K:F
V:1 treble nm="Soprano" snm="S"
V:2 bass nm="Bass" snm="B"
V:3 treble nm="MusicXML Part"
V:4 bass 
V:1
 A2 B2 c4- | c2 F2 G2 G2 | A4 A4 | G2 A2 B4 | c2 c4 c2 | B4 B4 | d2 d2 d4 | c2 B4 G2 | A4 G4 | %9
w: Re- gia'In- fan-|* te glo- ri-|o- sa,|che ne' li-|qui- di sen-|tie- ri,|ren- di l'ac-|qua lu- mi-|no- sa,|
w: La de fior|_ l'au- rea Fe-|ni- ce,|l'a- mo- ro-|sa MAR- GHE-|RI- TA,|d'o- gni'o- dor|su- per- b'al-|tri- ce,|
w: Qui le Nin-|* fe fon- ta-|nie- re,|co- ro- na-|te di co-|ral- li,|di ru- bin,|di per- le'in-|tie- re,|
w: Qui la Do-|* ra con la|Stur- na,|tra l'ar- gen-|to'e tra'l fin'|o- ro,|smal- ta'il suol|d'al- ma ver-|du- ra:|
w: Ma se'a que-|* sto'al- te- ro'in-|car- co,|par bra- ma-|ste di bei|fio- ri,|la ne gi-|te'o- ve'il gran|Par- co,|
w: La le Ro-|* se'a mo- ro-|set- te,|del Sol fi-|gli'e dell' Au-|ro- ra,|le Vi- o-|le pal- li-|det- te,|
 F2 F2 F4 | G2 G4 G2 | F4 F4 :: G2 A2 B4 | G2 A4 F2 | G4 G4 | A2 B2 c4- | c2 G2 G3 G | F4 F4 :| %18
w: con be- gl'oc-|chi lu- sin-|ghie- ri,|al- le fiam-|me be- a-|tri- ci,|ar- don schie-|* re na- ta-|tri- ce.|
w: di co- lor|piu bei fe-|sti- ta,|va- gheg- gia-|ra'in o- gni|spon- da,|or- na'il ciel,|_ la ter- ra'e|l'on- da.|
w: gui- dan ca-|ri'e no- vi|bal- li:|e qui'a voi|del Po Re-|gi- na,|Po de fiu-|* m'il Re s'in-|chi- na.|
w: qui la Pal-|ma con l'Al-|lo- ro,|per or- nar-|v'il bion- do|cri- ne,|fan ghir- lan-|* de per- e-|gri- ne.|
w: spi- ra'in- ter-|no'A- ra- bi'o-|do- ri,|la fio- ri-|to'e'l vi- go|fon- te,|la ver- deg-|* gia'il pia- no'e'l|mon- te.|
w: lo spi- rar|del- la fresc'|o- ra,|del bel vol-|to'al bel se-|re- no,|a- pri- an-|* no'il va- go|se- no.|
V:2
 F,2 G,2 F,4 | A,,4 B,,2 C,2 | F,,4 F,,4 | _E,2 F,2 G,4 | _E,2 F,4 F,2 | B,,4 B,,4 | %6
w: Re- gia'In- fan-|te glo- ri-|o- sa,|che ne' li-|qui- di sen-|tie- ri,|
w: La de fior|l'au- rea Fe-|ni- ce,|l'a- mo- ro-|sa MAR- GHE-|RI- TA,|
w: Qui le Nin-|fe fon- ta-|nie- re,|co- ro- na-|te di co-|ral- li,|
w: Qui la Do-|ra con la|Stur- na,|tra l'ar- gen-|to'e tra'l fin'|o- ro,|
w: Ma se'a que-|sto'al- te- ro'in-|car- co,|par bra- ma-|ste di bei|fio- ri,|
w: Ma le Ro-|se'a mo- ro-|set- te,|del Sol fi-|gl''e dell' Au-|ro- ra,|
 B,,2 B,,2 B,,4 | C,2 D,4 E,2 | F,4 C,4 | D,2 A,,2 B,,4- | B,,2 C,4 C,2 | F,,4 F,,4 :: %12
w: ren- di l'ac-|qua lu- mi-|no- sa,|con be- gl'oc-|chi lu- sin-|ghie- ri,|
w: d'o- gni'o- dor|su- per- b'al-|tri- ce,,|di co- lor|piu bel fe-|sti- ta,|
w: di ru- bin,|di per- le'in-|tie- re,|gui- dan ca-|ri'e no- vi|bal- li:|
w: smal- ta'il suol|d'al- ma ver-|du- ra:|qui la Pal-|ma con l'Al-|lo- ro,|
w: la ne gi-|te'o- ve'il gran|Par- co,|spi- ra'in- ter-|no'A- ra- bi'o-|do- ri,|
w: le Vi- o-|le pal- li-|det- te,|lo spi- rar|del- la fresc'|o- ra,|
 _E,2 E,2 E,4 | _E,2 D,4 D,2 | C,4 B,,4 | A,,2 G,,2 F,,4 | B,,4 C,3 C, | F,,4 F,,4 :| %18
w: al- la fiam-|me be- a-|tri- ci,|ar- don schie-|re na- ta|tri- ce.|
w: va- gheg- gia-|ra'in o- gni|spon- da,|or- na'il ciel,|la ter- ra'e|l'on- da.|
w: e qui'a voi|del Po Re-|gi- na,|Po de fiu-|m'il Re s'in-|chi- na.|
w: per or- nar-|v'il bion- do|cri- ne,|fan ghir- lan-|de per- e-|gri- ne.|
w: la fio- ri-|to'e'l vi- go|fon- te,|la ver- deg-|gia'il pia- no'e'l|mon- te.|
w: del bel vol-|to'al bel se-|re- no,|a pri- an-|no'il va- go|se- no.|
V:3
 z8 | z8 | z8 | z8 | z8 | z8 | z8 | z8 | z8 | z8 | z8 | z8 :: z8 | z8 | z8 | z8 | z8 | %17
"^Notes : Original Clefs : C1, F4\n    Continuo slightly adapted\n    Tite-page missing in original\n             print.\n     Dedicated to Margarita di Savoia,\n              navigando il Po." z8 :| %18
V:4
 F,2 G,2 F,4 | A,,4 B,,2 C,2 | F,,8 | _E,2 F,2 G,4 | _E,2 F,6 | B,,8 | B,,8 | C,2 D,4 E,2 | %8
 F,4 C,4 | D,2 A,,2 B,,4 | B,,2 C,6 | F,,8 :: _E,8 | _E,2 D,6 | C,4 B,,4 | A,,2 G,,2 F,,4 | %16
 B,,4 C,4 | F,,8 :| %18

